X: 39665
T: Tennessee Wagoner
R: reel
M: 4/4
K: Cmajor
|:ag|ec2c c2 c2|cdef g2 gg|edBA G3A|GABc daga|
ec2c c2 c2|cdef g2 ga|agag egag|ec2c c2:|
|:G,2|C2 CCB,C D2|EG AB cB A2|B,B,B,B, A,B,3|G,2 C2 CC G,2|
C2 CCB,C D2|EGAB cB A2|B,B,B,B, A,B,3|G,C2C C2:|

